X:1
T:Jesus Is the Friend You Need
T:Jesus Is the Friend You Need
T:Isham Emmanuel Reynolds
T:Isham Emmanuel Reynolds, 1918
T:Public Domain Courtesy of the Cyber Hymnal™
C:Isham Emmanuel Reynolds
Z:Public Domain
Z:Courtesy of the Cyber Hymnal™
%%score ( 1 2 ) ( 3 4 )
L:1/8
Q:1/4=110
M:4/4
K:G
V:1 treble 
V:2 treble 
V:3 bass 
V:4 bass 
V:1
 DD | [DG]2 [EG]2 [DG]2 [DG][DA] | [GB]2 [Gd]2 [Gd]4 | [Gd][Ec][DB][CA] [B,G]2 [^CA]2 | [DA]6 DD | %5
w: 1.~When the|sun shines bright and your|heart is light,|Je- sus is the friend you|need; When the|
w: 2.~If you’re|lost in sin, all is|dark with- in,|Je- sus is the friend you|need; God a-|
w: 3.~When in|that sad hour, when in|death’s grim power,|Je- sus is the friend you|need; If you|
w: 4.~When the|cares of life all a-|round are rife,|Je- sus is the friend you|need; Glo- ry|
 [DG]2 [EG]2 [DG]2 G[FA] | [GB]2 [Gd]2 [Gd]4 | [Gd][Gc][GB][EA] [DG]2 [DF]2 | [DG]6 z2 || %9
w: clouds hang low in this|world of woe,|Je- sus is the friend you|need.|
w: lone can save through the|Son He gave,|Je- sus is the friend you|need.|
w: would pre- pare ’gainst the|tempt- er’s snare,|Je- sus is the friend you|need.|
w: to His name, al- ways|He’s the same,|Je- sus is the friend you|need.|
"^Refrain" [Gd]>[Gd] [Gd][Ge] [Gd]2 [GB]2 | [Fc]6 z2 | [Fc]>[Fc] [Fc][Fd] [Fc]2 [FA]2 | [GB]6 DD | %13
w: ||||
w: Je- sus is the friend you|need,|Such a friend is He in-|deed; He who|
w: ||||
w: ||||
 [DG][DA][GB][Gc] [Gd]2 [GB][GB] | [Gc][GB][Gc][Gd] [Ge]4 | [Gd]>[Gc] [GB][EA] [DG]2 [DF]2 | %16
w: |||
w: not- eth ev- ery tear, He will|ban- ish ev- ery fear,|Je- sus is the friend you|
w: |||
w: |||
 [DG]6 |] %17
w: |
w: need.|
w: |
w: |
V:2
 DD | x8 | x8 | x8 | x6 DD | x6 G x | x8 | x8 | x8 || x8 | x8 | x8 | x6 DD | x8 | x8 | x8 | x6 |] %17
V:3
 [G,B,][G,B,] | [G,B,]2 [G,C]2 [G,B,]2 [G,B,][G,C] | [G,D]2 [G,B,]2 [G,B,]4 | %3
 [C,G,][C,G,][D,G,][D,F,] [E,G,]2 [A,,G,]2 | ([D,F,]2 [E,G,]2 [F,A,]2) [G,B,][G,B,] | %5
 [G,B,]2 [G,C]2 [G,B,]2 [B,D][A,D] | [G,D]2 [G,B,]2 [G,B,]4 | %7
 [G,B,][G,E][G,D][C,C] [D,B,]2 [D,A,]2 | [G,B,]6 z2 || B,3 C B,2 D2 | %10
 ([A,D]>[A,D][F,D][F,D] [D,A,]2) z2 | [D,A,]4 A,2 D2 | %12
 ([G,D]>[G,D][D,D][B,,D] [G,,D]2) [G,B,][G,B,] | [G,B,][G,C][G,D][G,A,] [G,B,]2 [G,D][G,D] | %14
 [G,E]D[E,C][D,B,] [C,C]4 | [G,B,]>[G,E] [G,D][C,C] [D,B,]2 [D,A,]2 | [G,B,]6 |] %17
V:4
 x2 | x8 | x8 | x8 | x8 | x8 | x8 | x8 | x8 || G,4 G,4 | x8 | x4 D,4 | x8 | x8 | x (G,/=F,/) x6 | %15
 x8 | x6 |] %17

